assets/images/item_2545.svg

<?xml version="1.0" standalone="no"?><!DOCTYPE svg PUBLIC "-//W3C//DTD SVG 1.1//EN" "http://www.w3.org/Graphics/SVG/1.1/DTD/svg11.dtd"><svg xmlns="http://www.w3.org/2000/svg" version="1.1" width="76px" height="160.2px" viewBox="0 -12 76 160.2" style="top:-12px"><desc>5</desc><defs/><g id="Polygon11194"><path d="m47.5 18.2v12.9H19.6l-1.7 11.3c2.7-.8 5.7-1.3 8.8-1.3c11.3 0 23.5 5.7 23.5 22c0 15.8-12.1 22.8-25 22.8c-7.3 0-14.8-2.2-20.5-6.3c-.02-.04 2.5-16.2 2.5-16.2c0 0 6.84-.04 6.8 0v2.1c0 10.6 5.8 15.7 11.7 15.7c5.7 0 11.4-4.7 11.4-14.1c0-11.5-8.3-15.9-17-15.9c-3.4 0-7 .8-10.1 2.1c-.01-.02 5.6-35.1 5.6-35.1h31.9z" stroke="none" fill="#000"/></g></svg>

<?xml version="1.0" standalone="no"?><!DOCTYPE svg PUBLIC "-//W3C//DTD SVG 1.1//EN" "http://www.w3.org/Graphics/SVG/1.1/DTD/svg11.dtd"><svg xmlns="http://www.w3.org/2000/svg" version="1.1" width="76px" height="160.2px" viewBox="0 -12 76 160.2" style="top:-12px">  <desc>5</desc>  <defs/>  <g id="Polygon11194">    <path d="M 47.5 18.2 L 47.5 31.1 L 19.6 31.1 C 19.6 31.1 17.91 42.39 17.9 42.4 C 20.6 41.6 23.6 41.1 26.7 41.1 C 38 41.1 50.2 46.8 50.2 63.1 C 50.2 78.9 38.1 85.9 25.2 85.9 C 17.9 85.9 10.4 83.7 4.7 79.6 C 4.68 79.56 7.2 63.4 7.2 63.4 C 7.2 63.4 14.04 63.36 14 63.4 C 14 64.1 14 64.8 14 65.5 C 14 76.1 19.8 81.2 25.7 81.2 C 31.4 81.2 37.1 76.5 37.1 67.1 C 37.1 55.6 28.8 51.2 20.1 51.2 C 16.7 51.2 13.1 52 10 53.3 C 9.99 53.28 15.6 18.2 15.6 18.2 L 47.5 18.2 Z " stroke="none" fill="#000"/>  </g></svg>
